X:154
T:Hunter's Purse
Z: id:dc-reel-142
M:C
L:1/8
K:A Dorian
gf|eAA2 AGEF|G2AF GED2|cBcd eged|Bdef gedB|!
eAA2 AGEF|G2AF GED2|cBcd eged|cABG A2:|!
Bd|eaa2 agef|g2af gedB|cBcd eged|Bdef gedB|!
eaa2 agef|g2af gedB|cBcd eged|cABG A2:|!

